recalbox-backport/x68000/data/controller.svg

<?xml version="1.0" encoding="UTF-8" standalone="no"?>
<!-- Generator: Adobe Illustrator 22.0.0, SVG Export Plug-In . SVG Version: 6.00 Build 0)  -->

<svg
   xmlns:dc="http://purl.org/dc/elements/1.1/"
   xmlns:cc="http://creativecommons.org/ns#"
   xmlns:rdf="http://www.w3.org/1999/02/22-rdf-syntax-ns#"
   xmlns:svg="http://www.w3.org/2000/svg"
   xmlns="http://www.w3.org/2000/svg"
   xmlns:sodipodi="http://sodipodi.sourceforge.net/DTD/sodipodi-0.dtd"
   xmlns:inkscape="http://www.inkscape.org/namespaces/inkscape"
   version="1.1"
   id="Capa_1"
   x="0px"
   y="0px"
   viewBox="0 0 107 166"
   xml:space="preserve"
   sodipodi:docname="controller.svg"
   width="107"
   height="166"
   inkscape:version="0.92.4 5da689c313, 2019-01-14"><metadata
   id="metadata41"><rdf:RDF><cc:Work
       rdf:about=""><dc:format>image/svg+xml</dc:format><dc:type
         rdf:resource="http://purl.org/dc/dcmitype/StillImage" /></cc:Work></rdf:RDF></metadata><defs
   id="defs39" /><sodipodi:namedview
   pagecolor="#ffffff"
   bordercolor="#666666"
   borderopacity="1"
   objecttolerance="10"
   gridtolerance="10"
   guidetolerance="10"
   inkscape:pageopacity="0"
   inkscape:pageshadow="2"
   inkscape:window-width="471"
   inkscape:window-height="442"
   id="namedview37"
   showgrid="false"
   inkscape:zoom="1.4242607"
   inkscape:cx="53.450001"
   inkscape:cy="82.950005"
   inkscape:window-x="0"
   inkscape:window-y="0"
   inkscape:window-maximized="0"
   inkscape:current-layer="Capa_1" />
<g
   id="g34"
   transform="translate(0,0.2)">
	<path
   d="M 103.9,82.7 98.2,24.4 c 0,-3.9 -3,-7 -6.6,-7 H 16 c -3.6,0 -6.6,3.2 -6.6,7 0,0 -6.4,58.3 -6.4,58.3 9.9,-18 28.6,-31 50.2,-31 21.9,0 40.9,12.6 50.7,31 z"
   id="path2"
   inkscape:connector-curvature="0"
   style="fill:#2b3138" />
	<path
   d="m 3.1,82 c 9.9,-18 29,-31 50.6,-31 21.9,0 40.7,13.3 50.5,31.7 0,0 1.7,17.3 1.7,17.3 C 101,74.9 79.4,56 53.5,56 27.6,56 6,74.9 1.1,100 c 0,0 2,-18 2,-18 z"
   id="path4"
   inkscape:connector-curvature="0"
   style="fill:#221a1f" />
	<ellipse
   cx="53.5"
   cy="110.9"
   rx="53.5"
   ry="54.900002"
   id="ellipse6"
   style="fill:#2b3138" />
	<g
   id="g28">
		<g
   id="g20">
			<path
   d="m 26.1,35.6 c 1.3,0.9 3,1.4 4.7,1.4 1.7,0 3.4,-0.5 4.7,-1.4 0,0 -9.4,0 -9.4,0 z"
   id="path8"
   inkscape:connector-curvature="0"
   style="fill:#31383f" />
			<path
   d="m 24.4,34.2 h 12.7 c 0.4,-0.4 0.7,-0.9 1,-1.4 H 23.4 c 0.3,0.5 0.6,1 1,1.4 z"
   id="path10"
   inkscape:connector-curvature="0"
   style="fill:#31383f" />
			<path
   d="m 22.7,31.4 h 16 c 0.2,-0.5 0.3,-0.9 0.4,-1.4 0,-0.2 0.1,-0.5 0.1,-0.7 0,0 -16.9,0 -16.9,0 0,0.2 0,0.5 0.1,0.7 0.1,0.4 0.2,0.9 0.3,1.4"
   id="path12"
   inkscape:connector-curvature="0"
   style="fill:#31383f" />
			<path
   d="m 39.2,27.8 c 0,-0.2 0,-0.5 -0.1,-0.7 -0.1,-0.5 -0.2,-1 -0.4,-1.4 0,0 -16,0 -16,0 -0.2,0.5 -0.3,0.9 -0.4,1.4 0,0.2 -0.1,0.5 -0.1,0.7 h 17"
   id="path14"
   inkscape:connector-curvature="0"
   style="fill:#31383f" />
			<path
   d="m 24.4,22.8 h 12.7 c 0.4,0.4 0.7,0.9 1,1.4 0,0 -14.7,0 -14.7,0 0.3,-0.4 0.6,-0.9 1,-1.4 z"
   id="path16"
   inkscape:connector-curvature="0"
   style="fill:#31383f" />
			<path
   d="m 35.5,21.4 c -1.3,-0.9 -3,-1.4 -4.7,-1.4 -1.7,0 -3.4,0.5 -4.7,1.4 0,0 9.4,0 9.4,0 z"
   id="path18"
   inkscape:connector-curvature="0"
   style="fill:#31383f" />
		</g>
		<g
   id="g24">
			<polygon
   points="7.1,45.6 52.6,45.6 52.6,17.4 53.6,17.4 53.6,45.6 100.3,45.6 100.4,46.6 7,46.6 "
   id="polygon22"
   style="fill:#221a1f" />
		</g>
		<path
   d="m 56.9,56.2 v 0 c -0.7,0 -1.4,0.5 -1.4,1.3 l -1.5,26 c 0,0.7 0.5,1.4 1.3,1.4 v 0 c 0.7,0 1.4,-0.5 1.4,-1.3 l 1.4,-26.1 c 0.1,-0.6 -0.5,-1.3 -1.2,-1.3 z"
   id="path26"
   inkscape:connector-curvature="0"
   style="fill:#31383f" />
	</g>
	<g
   id="g32">
		<path
   d="M 54.8,17.4 H 51.7 C 52.1,15.9 52.6,12.6 51.2,9.6 49.5,5.6 45.1,3 40,2.8 39.8,2.8 39.6,2.6 39.6,2.4 V 0.3 c 0,-0.3 0.2,-0.5 0.5,-0.5 6.2,0.2 11.6,3.5 13.9,8.6 1.7,3.7 1.3,7.1 0.8,9 z"
   id="path30"
   inkscape:connector-curvature="0"
   style="fill:#1e1b1d" />
	</g>
</g>
</svg>

<?xml version="1.0" encoding="utf-8"?>
<!-- Generator: Adobe Illustrator 22.0.0, SVG Export Plug-In . SVG Version: 6.00 Build 0)  -->
<svg version="1.1" baseProfile="tiny" id="Capa_1" xmlns="http://www.w3.org/2000/svg" xmlns:xlink="http://www.w3.org/1999/xlink"
	 x="0px" y="0px" viewBox="0 0 106.9 165.7" xml:space="preserve">
<g>
	<path fill="#2B3138" d="M103.9,82.7l-5.7-58.3c0-3.9-3-7-6.6-7H16c-3.6,0-6.6,3.2-6.6,7c0,0-6.4,58.3-6.4,58.3
		c9.9-18,28.6-31,50.2-31C75.1,51.7,94.1,64.3,103.9,82.7z"/>
	<path fill="#221A1F" d="M3.1,82c9.9-18,29-31,50.6-31c21.9,0,40.7,13.3,50.5,31.7c0,0,1.7,17.3,1.7,17.3C101,74.9,79.4,56,53.5,56
		C27.6,56,6,74.9,1.1,100C1.1,100,3.1,82,3.1,82z"/>
	<ellipse fill="#2B3138" cx="53.5" cy="110.9" rx="53.5" ry="54.9"/>
	<g>
		<g>
			<path fill="#31383F" d="M26.1,35.6c1.3,0.9,3,1.4,4.7,1.4c1.7,0,3.4-0.5,4.7-1.4C35.5,35.6,26.1,35.6,26.1,35.6z"/>
			<path fill="#31383F" d="M24.4,34.2h12.7c0.4-0.4,0.7-0.9,1-1.4H23.4C23.7,33.3,24,33.8,24.4,34.2z"/>
			<path fill="#31383F" d="M22.7,31.4h16c0.2-0.5,0.3-0.9,0.4-1.4c0-0.2,0.1-0.5,0.1-0.7c0,0-16.9,0-16.9,0c0,0.2,0,0.5,0.1,0.7
				C22.5,30.4,22.6,30.9,22.7,31.4"/>
			<path fill="#31383F" d="M39.2,27.8c0-0.2,0-0.5-0.1-0.7c-0.1-0.5-0.2-1-0.4-1.4c0,0-16,0-16,0c-0.2,0.5-0.3,0.9-0.4,1.4
				c0,0.2-0.1,0.5-0.1,0.7L39.2,27.8"/>
			<path fill="#31383F" d="M24.4,22.8h12.7c0.4,0.4,0.7,0.9,1,1.4c0,0-14.7,0-14.7,0C23.7,23.8,24,23.3,24.4,22.8z"/>
			<path fill="#31383F" d="M35.5,21.4c-1.3-0.9-3-1.4-4.7-1.4c-1.7,0-3.4,0.5-4.7,1.4C26.1,21.4,35.5,21.4,35.5,21.4z"/>
		</g>
		<g>
			<polygon fill="#221A1F" points="100.4,46.6 7,46.6 7.1,45.6 52.6,45.6 52.6,17.4 53.6,17.4 53.6,45.6 100.3,45.6 			"/>
		</g>
		<path fill="#31383F" d="M56.9,56.2L56.9,56.2c-0.7,0-1.4,0.5-1.4,1.3L54,83.5c0,0.7,0.5,1.4,1.3,1.4h0c0.7,0,1.4-0.5,1.4-1.3
			l1.4-26.1C58.2,56.9,57.6,56.2,56.9,56.2z"/>
	</g>
	<g>
		<path fill="#1E1B1D" d="M54.8,17.4h-3.1c0.4-1.5,0.9-4.8-0.5-7.8C49.5,5.6,45.1,3,40,2.8c-0.2,0-0.4-0.2-0.4-0.4l0-2.1
			c0-0.3,0.2-0.5,0.5-0.5C46.3,0,51.7,3.3,54,8.4C55.7,12.1,55.3,15.5,54.8,17.4z"/>
	</g>
</g>
</svg>
